X:40
T: Fehér az akácfa
O: Kisapáti (Veszprém), Horváth Mária (18), 1952.08
Q: "Tempo guisto" 1/4=96
N: Szentirmay Elemérnek a 1881-ben keletkezett s a nép ajkán is elterjedt dala
M:4/4
L:1/4
K:D
B/F/F/G/ F E | F/C/D/E/ D C | D<B, B, z | 
D E F F | B/B/B/c/ d<c | B<G F z | 
D E F F | B/B/B/c/ d<c | B<F A z | 
B/F/F/G/ F E | F/C/D/E/ D C | D<B, B, z | 